public/section3/AwanSedang2.svg

<svg width="531" height="207" viewBox="0 0 531 207" fill="none" xmlns="http://www.w3.org/2000/svg">
<g opacity="0.5">
<mask id="path-1-inside-1_24_6484" fill="white">
<path d="M16.8173 101.732C11.4813 99.5291 5.66452 100.082 -3.05176e-05 100.747C1.98697 99.9537 3.90189 99.0564 5.7767 98.183C6.60193 97.7985 7.42715 97.4139 8.25241 97.0373C15.5674 93.7203 22.7542 90.9561 30.1414 93.512C38.8024 96.5085 46.4459 103.679 52.1345 109.584C52.3428 109.801 52.5031 110.057 52.6793 110.305C53.0158 110.786 53.4324 111.387 54.0253 111.932C64.7214 121.731 86.0816 132.194 101.048 120.881C105.911 117.204 109.405 112.172 112.289 107.741C121.022 94.3533 131.35 82.6717 147.654 87.7834C148.039 87.9036 148.44 88.0958 148.904 88.3202C149.441 88.5766 149.978 88.833 150.547 89.0333C150.779 89.1134 151.075 89.2336 151.42 89.3698C153.495 90.195 155.09 90.7639 156.444 90.5716C157.357 90.4434 158.134 89.8345 158.479 88.9772C159.584 86.2611 157.173 84.1058 155.883 82.9521C155.674 82.7678 155.482 82.5996 155.354 82.4634C154.561 81.5981 153.687 80.9251 152.838 80.2681C151.861 79.5069 150.931 78.7858 150.394 77.9526C144.69 69.0592 144.546 60.278 149.986 52.5704C158.35 40.6965 178.573 33.71 194.14 37.3154C201.712 39.062 211.198 43.9814 213.369 57.4577L214.964 67.3606C215.188 68.7708 216.502 69.7402 217.928 69.5159C219.338 69.2996 220.308 67.9775 220.099 66.5674C218.842 58.0826 217.415 48.4682 220.268 40.0155C222.086 34.6314 225.788 29.2953 231.605 23.7109C252.5 3.62464 284.14 -4.66783 312.198 2.5911C325.394 6.00424 336.194 13.0308 346.193 24.6964C352.627 32.2037 360.375 42.3389 363.195 54.1167C367.281 71.2305 360.158 90.6277 345.464 102.389C331.716 113.398 312.294 117.492 293.522 113.342C288.178 112.164 283.355 110.377 279.14 108.102C276.785 106.075 274.173 104.216 271.273 102.582C270.688 102.045 270.103 101.508 269.558 100.947C257.596 88.4244 259.351 68.4743 267.827 57.1773C275.327 47.2023 286.423 45.023 298.289 51.2003C301.983 53.1232 306.317 57.2494 307.086 61.7522C307.487 64.1077 306.822 66.1748 305.051 68.0737C304.074 69.1233 304.13 70.7658 305.18 71.7432C306.229 72.7207 307.872 72.6646 308.849 71.6151C311.725 68.5384 312.887 64.8208 312.206 60.8708C311.125 54.5894 305.644 49.1652 300.685 46.5853C286.544 39.2303 272.707 42.0185 263.669 54.0526C255.24 65.2775 252.652 83.9616 261.025 98.183C252.965 95.6913 243.431 94.7539 232.342 96.18C220.877 97.6462 205.59 104.48 200.214 118.894C194.445 134.357 203.771 150.566 215.477 157.969C223.192 162.848 234.048 163.994 241.876 160.773C247.845 158.314 251.755 153.675 253.197 147.369C255.433 137.562 249.616 127.467 240.482 125.328C235.443 124.15 230.715 124.871 227.831 127.259C226.293 128.533 224.506 130.912 224.69 135.031C224.803 137.578 226.269 140.11 228.52 141.624C230.587 143.019 233.015 143.387 235.178 142.618C236.532 142.137 237.245 140.655 236.765 139.301C236.284 137.947 234.802 137.242 233.448 137.715C232.598 138.011 231.749 137.53 231.421 137.306C230.523 136.697 229.914 135.712 229.874 134.79C229.802 133.172 230.219 132.018 231.14 131.249C232.726 129.927 235.923 129.582 239.28 130.376C246.347 132.034 249.552 139.894 248.11 146.199C247.044 150.854 244.272 154.139 239.873 155.958C233.512 158.586 224.61 157.601 218.233 153.57C208.258 147.265 200.254 133.596 205.061 120.705C209.628 108.463 222.952 102.614 232.983 101.332C247.677 99.4489 259.375 102.021 268.244 106.892C270.535 108.911 273.147 110.698 275.992 112.292C281.063 116.723 284.709 121.979 286.952 127.291C293.939 143.756 289.668 166.326 278.051 182.27C277.826 182.342 277.602 182.438 277.394 182.582C276.697 183.055 276.312 183.8 276.272 184.577C273.42 188.102 270.191 191.251 266.617 193.847C251.154 205.08 225.668 207.692 209.796 199.664C198.675 194.039 189.413 183.8 183.492 170.652C186.353 169.771 188.941 168.537 191.176 166.975C196.72 163.089 200.181 156.895 200.197 150.822C200.197 149.388 199.044 148.218 197.61 148.218H197.602C196.167 148.218 195.006 149.38 195.006 150.806C194.99 155.221 192.378 159.78 188.195 162.72C184.502 165.316 179.51 166.798 173.774 167.023C161.451 167.511 150.034 162.312 137.792 150.71C136.75 149.725 135.107 149.765 134.122 150.806C133.136 151.848 133.177 153.49 134.218 154.484C146.821 166.43 159.296 172.255 172.291 172.255C172.852 172.255 173.413 172.247 173.974 172.223C175.4 172.166 176.77 172.03 178.116 171.838C179.999 180.419 171.322 188.743 165.513 192.501C155.955 198.686 142.727 199.728 130.981 195.209C120.133 191.035 110.735 181.404 104.469 168.08C108.419 163.626 110.062 157.665 109.445 152.505C108.652 145.847 103.852 138.644 92.7557 138.396C91.4016 138.364 86.6425 138.572 82.9569 142.522C79.9203 145.775 78.6624 150.43 79.2153 156.351C79.3515 157.777 80.6414 158.826 82.0435 158.698C83.4697 158.562 84.5273 157.296 84.3911 155.87C83.9825 151.487 84.7837 148.194 86.7547 146.071C88.5173 144.188 90.977 143.563 92.6355 143.595C102.154 143.812 103.957 150.334 104.285 153.122C105.022 159.299 101.176 166.903 93.4767 168.946C83.4536 171.606 67.5176 168.056 60.6673 158.714C59.0569 156.519 59.3293 154.772 59.746 152.12C60.0825 149.981 60.459 147.553 59.7219 144.709C57.9192 137.755 51.6378 138.099 47.8961 138.307C46.6703 138.38 45.5406 138.372 44.2346 138.452C43.3132 138.508 42.2636 138.572 41.6948 138.396C36.527 136.857 35.2371 131.858 33.859 124.407C33.4984 122.452 33.162 120.609 32.6732 118.862C30.4859 110.954 25.1419 105.202 16.7933 101.756L16.8173 101.732Z"/>
</mask>
<path d="M16.8173 101.732C11.4813 99.5291 5.66452 100.082 -3.05176e-05 100.747C1.98697 99.9537 3.90189 99.0564 5.7767 98.183C6.60193 97.7985 7.42715 97.4139 8.25241 97.0373C15.5674 93.7203 22.7542 90.9561 30.1414 93.512C38.8024 96.5085 46.4459 103.679 52.1345 109.584C52.3428 109.801 52.5031 110.057 52.6793 110.305C53.0158 110.786 53.4324 111.387 54.0253 111.932C64.7214 121.731 86.0816 132.194 101.048 120.881C105.911 117.204 109.405 112.172 112.289 107.741C121.022 94.3533 131.35 82.6717 147.654 87.7834C148.039 87.9036 148.44 88.0958 148.904 88.3202C149.441 88.5766 149.978 88.833 150.547 89.0333C150.779 89.1134 151.075 89.2336 151.42 89.3698C153.495 90.195 155.09 90.7639 156.444 90.5716C157.357 90.4434 158.134 89.8345 158.479 88.9772C159.584 86.2611 157.173 84.1058 155.883 82.9521C155.674 82.7678 155.482 82.5996 155.354 82.4634C154.561 81.5981 153.687 80.9251 152.838 80.2681C151.861 79.5069 150.931 78.7858 150.394 77.9526C144.69 69.0592 144.546 60.278 149.986 52.5704C158.35 40.6965 178.573 33.71 194.14 37.3154C201.712 39.062 211.198 43.9814 213.369 57.4577L214.964 67.3606C215.188 68.7708 216.502 69.7402 217.928 69.5159C219.338 69.2996 220.308 67.9775 220.099 66.5674C218.842 58.0826 217.415 48.4682 220.268 40.0155C222.086 34.6314 225.788 29.2953 231.605 23.7109C252.5 3.62464 284.14 -4.66783 312.198 2.5911C325.394 6.00424 336.194 13.0308 346.193 24.6964C352.627 32.2037 360.375 42.3389 363.195 54.1167C367.281 71.2305 360.158 90.6277 345.464 102.389C331.716 113.398 312.294 117.492 293.522 113.342C288.178 112.164 283.355 110.377 279.14 108.102C276.785 106.075 274.173 104.216 271.273 102.582C270.688 102.045 270.103 101.508 269.558 100.947C257.596 88.4244 259.351 68.4743 267.827 57.1773C275.327 47.2023 286.423 45.023 298.289 51.2003C301.983 53.1232 306.317 57.2494 307.086 61.7522C307.487 64.1077 306.822 66.1748 305.051 68.0737C304.074 69.1233 304.13 70.7658 305.18 71.7432C306.229 72.7207 307.872 72.6646 308.849 71.6151C311.725 68.5384 312.887 64.8208 312.206 60.8708C311.125 54.5894 305.644 49.1652 300.685 46.5853C286.544 39.2303 272.707 42.0185 263.669 54.0526C255.24 65.2775 252.652 83.9616 261.025 98.183C252.965 95.6913 243.431 94.7539 232.342 96.18C220.877 97.6462 205.59 104.48 200.214 118.894C194.445 134.357 203.771 150.566 215.477 157.969C223.192 162.848 234.048 163.994 241.876 160.773C247.845 158.314 251.755 153.675 253.197 147.369C255.433 137.562 249.616 127.467 240.482 125.328C235.443 124.15 230.715 124.871 227.831 127.259C226.293 128.533 224.506 130.912 224.69 135.031C224.803 137.578 226.269 140.11 228.52 141.624C230.587 143.019 233.015 143.387 235.178 142.618C236.532 142.137 237.245 140.655 236.765 139.301C236.284 137.947 234.802 137.242 233.448 137.715C232.598 138.011 231.749 137.53 231.421 137.306C230.523 136.697 229.914 135.712 229.874 134.79C229.802 133.172 230.219 132.018 231.14 131.249C232.726 129.927 235.923 129.582 239.28 130.376C246.347 132.034 249.552 139.894 248.11 146.199C247.044 150.854 244.272 154.139 239.873 155.958C233.512 158.586 224.61 157.601 218.233 153.57C208.258 147.265 200.254 133.596 205.061 120.705C209.628 108.463 222.952 102.614 232.983 101.332C247.677 99.4489 259.375 102.021 268.244 106.892C270.535 108.911 273.147 110.698 275.992 112.292C281.063 116.723 284.709 121.979 286.952 127.291C293.939 143.756 289.668 166.326 278.051 182.27C277.826 182.342 277.602 182.438 277.394 182.582C276.697 183.055 276.312 183.8 276.272 184.577C273.42 188.102 270.191 191.251 266.617 193.847C251.154 205.08 225.668 207.692 209.796 199.664C198.675 194.039 189.413 183.8 183.492 170.652C186.353 169.771 188.941 168.537 191.176 166.975C196.72 163.089 200.181 156.895 200.197 150.822C200.197 149.388 199.044 148.218 197.61 148.218H197.602C196.167 148.218 195.006 149.38 195.006 150.806C194.99 155.221 192.378 159.78 188.195 162.72C184.502 165.316 179.51 166.798 173.774 167.023C161.451 167.511 150.034 162.312 137.792 150.71C136.75 149.725 135.107 149.765 134.122 150.806C133.136 151.848 133.177 153.49 134.218 154.484C146.821 166.43 159.296 172.255 172.291 172.255C172.852 172.255 173.413 172.247 173.974 172.223C175.4 172.166 176.77 172.03 178.116 171.838C179.999 180.419 171.322 188.743 165.513 192.501C155.955 198.686 142.727 199.728 130.981 195.209C120.133 191.035 110.735 181.404 104.469 168.08C108.419 163.626 110.062 157.665 109.445 152.505C108.652 145.847 103.852 138.644 92.7557 138.396C91.4016 138.364 86.6425 138.572 82.9569 142.522C79.9203 145.775 78.6624 150.43 79.2153 156.351C79.3515 157.777 80.6414 158.826 82.0435 158.698C83.4697 158.562 84.5273 157.296 84.3911 155.87C83.9825 151.487 84.7837 148.194 86.7547 146.071C88.5173 144.188 90.977 143.563 92.6355 143.595C102.154 143.812 103.957 150.334 104.285 153.122C105.022 159.299 101.176 166.903 93.4767 168.946C83.4536 171.606 67.5176 168.056 60.6673 158.714C59.0569 156.519 59.3293 154.772 59.746 152.12C60.0825 149.981 60.459 147.553 59.7219 144.709C57.9192 137.755 51.6378 138.099 47.8961 138.307C46.6703 138.38 45.5406 138.372 44.2346 138.452C43.3132 138.508 42.2636 138.572 41.6948 138.396C36.527 136.857 35.2371 131.858 33.859 124.407C33.4984 122.452 33.162 120.609 32.6732 118.862C30.4859 110.954 25.1419 105.202 16.7933 101.756L16.8173 101.732Z" fill="url(#paint0_linear_24_6484)" fill-opacity="0.48" stroke="url(#paint1_linear_24_6484)" stroke-width="5.93569" mask="url(#path-1-inside-1_24_6484)"/>
<path d="M367.382 83.1753C363.821 92.5105 357.763 101.088 349.637 107.586V107.587C334.295 119.872 312.771 124.422 292.08 119.848L292.076 119.847C291.556 119.73 291.041 119.606 290.531 119.478C291.525 121.189 292.393 122.927 293.134 124.668H293.133C301.003 143.234 296.706 167.511 284.279 185.14C288.4 190.287 293.721 194.505 299.46 196.538C305.463 198.663 311.939 198.415 318.158 194.301C319.754 193.244 321.343 192.063 322.639 190.997C323.667 190.15 324.439 189.432 324.895 188.934C324.898 187.805 325.365 186.68 326.283 185.875L326.284 185.873L326.446 185.739C328.084 184.447 330.447 184.593 331.905 186.099L332.044 186.25C332.941 187.268 333.805 188.276 334.641 189.265C339.4 194.853 343.285 199.382 350.12 202.177C356.81 204.913 364.767 205.735 371.918 204.431C383.049 202.398 389.088 197.132 397.822 189.464L397.824 189.462C398.368 188.987 398.921 188.501 399.484 188.009L401.205 186.515C402.512 185.385 403.906 184.036 405.39 182.56C399.665 185.384 393.683 187.786 387.408 188.706V188.707C384.731 189.102 382.063 189.292 379.428 189.292C367.418 189.292 356.006 185.312 347.876 177.973C346.199 176.46 346.077 173.878 347.584 172.208C349.097 170.53 351.678 170.408 353.349 171.916C361.372 179.151 373.638 182.472 386.232 180.634C394.316 179.454 402.374 175.08 410.46 170.666C420.818 165.01 431.905 158.941 444.1 159.58C446.065 159.582 448.082 159.759 450.173 160.159H450.176C450.82 160.283 451.396 160.557 451.88 160.928C453.175 161.309 454.501 161.745 455.859 162.326C461.159 164.581 465.947 167.717 470.462 170.661L470.464 170.662C478.998 176.241 486.602 181.142 496.408 180.589C501.756 180.287 505.582 178.541 508.665 175.648C511.604 172.89 513.941 169.023 516.214 164.124L516.667 163.13C517.681 160.871 519.156 157.584 521.331 154.533C522.738 152.558 524.472 150.634 526.613 149.132C525.866 149.062 525.076 149.027 524.216 149.029L523.209 149.046C521.924 149.085 520.737 149.545 519.029 150.23V150.229C518.341 150.506 517.59 150.811 516.816 151.075V151.074C514.956 151.715 513.309 152.45 511.649 153.183V153.182C507.372 155.083 503.055 157.013 496.393 156.494C492.589 156.197 488.308 155.747 484.4 153.785L484.401 153.784C476.6 149.866 472.004 143.027 467.782 136.793C464.405 131.808 461.376 127.372 457.138 124.249L457.139 124.248C447.283 116.994 433.141 116.63 423.16 123.198C423.386 126.011 423.327 128.849 422.902 131.664C421.637 140.094 417.093 147.969 410.422 153.283C404.376 158.099 395.276 160.625 386.494 160.625C381.315 160.624 376.144 159.75 371.688 157.872L371.689 157.871C363.513 154.427 358.438 147.933 357.593 139.588V139.587C356.421 127.976 364.646 120.196 372.633 117.856H372.634C381.816 115.171 390.621 119 394.957 127.55V127.551C395.976 129.564 395.171 132.017 393.161 133.037V133.038C391.153 134.06 388.688 133.252 387.67 131.24C386.122 128.184 383.983 126.532 381.763 125.76C379.509 124.977 377.066 125.069 374.926 125.696H374.925C369.904 127.165 365.019 131.908 365.713 138.768C366.253 144.101 369.233 147.982 374.852 150.345C379.419 152.267 385.24 152.863 390.877 152.217C396.522 151.571 401.796 149.703 405.327 146.891C410.235 142.981 413.636 137.226 414.719 131.044L414.815 130.445C415.857 123.482 414.207 116.137 411.001 109.49C407.796 102.845 403.085 97.0024 398.163 93.0698C390.683 87.0933 379.829 83.5867 367.382 83.1753Z" fill="url(#paint2_linear_24_6484)" fill-opacity="0.48" stroke="url(#paint3_linear_24_6484)" stroke-width="2.96785"/>
</g>
<defs>
<linearGradient id="paint0_linear_24_6484" x1="364.335" y1="102.161" x2="-3.05176e-05" y2="102.161" gradientUnits="userSpaceOnUse">
<stop stop-color="#FCF0D6"/>
<stop offset="1" stop-color="#FFC446"/>
</linearGradient>
<linearGradient id="paint1_linear_24_6484" x1="364.335" y1="102.161" x2="-3.05176e-05" y2="102.161" gradientUnits="userSpaceOnUse">
<stop stop-color="#FCF0D6"/>
<stop offset="1" stop-color="#FFC446"/>
</linearGradient>
<linearGradient id="paint2_linear_24_6484" x1="531" y1="144.092" x2="282.426" y2="144.092" gradientUnits="userSpaceOnUse">
<stop stop-color="#FCF0D6"/>
<stop offset="1" stop-color="#FFC446"/>
</linearGradient>
<linearGradient id="paint3_linear_24_6484" x1="531" y1="144.092" x2="282.426" y2="144.092" gradientUnits="userSpaceOnUse">
<stop stop-color="#FCF0D6"/>
<stop offset="1" stop-color="#FFC446"/>
</linearGradient>
</defs>
</svg>

<svg xmlns="http://www.w3.org/2000/svg" width="531" height="207" fill="none" viewBox="0 0 531 207"><g opacity=".5"><mask id="c" fill="#fff"><path d="M16.82 101.73c-5.34-2.2-11.16-1.65-16.82-.98 1.99-.8 3.9-1.69 5.78-2.57.82-.38 1.65-.77 2.47-1.14 7.32-3.32 14.5-6.08 21.89-3.53 8.66 3 16.31 10.17 21.99 16.07.21.22.37.48.55.73.34.48.75 1.08 1.35 1.62 10.69 9.8 32.05 20.26 47.02 8.95 4.86-3.68 8.36-8.71 11.24-13.14 8.73-13.39 19.06-25.07 35.36-19.96.39.12.79.32 1.25.54.54.26 1.08.51 1.65.71.23.08.52.2.87.34 2.08.82 3.67 1.39 5.02 1.2a2.6 2.6 0 0 0 2.04-1.59c1.1-2.72-1.31-4.87-2.6-6.03-.21-.18-.4-.35-.53-.49-.79-.86-1.66-1.53-2.51-2.19-.98-.76-1.91-1.48-2.45-2.32-5.7-8.89-5.84-17.67-.4-25.38 8.36-11.87 28.58-18.86 44.15-15.25 7.57 1.74 17.06 6.66 19.23 20.14l1.59 9.9a2.6 2.6 0 0 0 5.14-.79c-1.26-8.49-2.69-18.1.17-26.55 1.82-5.39 5.52-10.72 11.33-16.31 20.9-20.09 52.54-28.38 80.6-21.12C325.39 6 336.19 13.03 346.19 24.7c6.44 7.5 14.19 17.64 17 29.42 4.09 17.11-3.03 36.51-17.73 48.27-13.74 11.01-33.17 15.1-51.94 10.95-5.34-1.18-10.16-2.96-14.38-5.24a49 49 0 0 0-7.87-5.52c-.58-.53-1.17-1.07-1.71-1.63-11.96-12.53-10.21-32.48-1.73-43.77 7.5-9.98 18.59-12.16 30.46-5.98 3.69 1.92 8.03 6.05 8.8 10.55.4 2.36-.27 4.42-2.04 6.32-.98 1.05-.92 2.7.13 3.67 1.05.98 2.69.92 3.67-.12 2.88-3.08 4.04-6.8 3.36-10.75-1.08-6.28-6.57-11.7-11.52-14.28-14.15-7.36-27.98-4.57-37.02 7.46-8.43 11.23-11.02 29.91-2.65 44.13-8.05-2.49-17.59-3.43-28.68-2-11.46 1.47-26.75 8.3-32.13 22.71-5.77 15.47 3.56 31.68 15.27 39.08 7.71 4.88 18.57 6.02 26.4 2.8 5.96-2.46 9.87-7.09 11.32-13.4 2.23-9.81-3.58-19.9-12.72-22.04-5.04-1.18-9.76-.46-12.65 1.93-1.54 1.27-3.32 3.65-3.14 7.77.11 2.55 1.58 5.08 3.83 6.59 2.07 1.4 4.49 1.77 6.66 1a2.59 2.59 0 0 0 1.58-3.32 2.593 2.593 0 0 0-3.31-1.58c-.85.29-1.7-.19-2.03-.41-.9-.61-1.51-1.6-1.55-2.52-.07-1.62.35-2.77 1.27-3.54 1.59-1.32 4.78-1.67 8.14-.87 7.07 1.65 10.27 9.51 8.83 15.82-1.07 4.65-3.84 7.94-8.24 9.76-6.36 2.63-15.26 1.64-21.64-2.39-9.97-6.31-17.98-19.97-13.17-32.87 4.57-12.24 17.89-18.09 27.92-19.37 14.7-1.88 26.4.69 35.26 5.56 2.3 2.02 4.91 3.81 7.75 5.4 5.07 4.43 8.72 9.69 10.96 15 6.99 16.47 2.72 39.04-8.9 54.98-.22.07-.45.17-.66.31-.69.48-1.08 1.22-1.12 2-2.85 3.52-6.08 6.67-9.65 9.27-15.47 11.23-40.95 13.84-56.82 5.81-11.12-5.62-20.39-15.86-26.31-29.01 2.86-.88 5.45-2.11 7.69-3.68 5.54-3.88 9-10.07 9.02-16.15a2.6 2.6 0 0 0-2.59-2.6h-.01a2.59 2.59 0 0 0-2.59 2.59c-.02 4.41-2.63 8.97-6.82 11.91-3.69 2.6-8.68 4.08-14.42 4.3-12.32.49-23.74-4.71-35.98-16.31a2.584 2.584 0 0 0-3.67.1c-.98 1.04-.94 2.68.1 3.67 12.6 11.95 25.08 17.77 38.07 17.77.56 0 1.12 0 1.68-.03 1.43-.05 2.8-.19 4.15-.38 1.88 8.58-6.8 16.9-12.61 20.66-9.55 6.19-22.78 7.23-34.53 2.71-10.85-4.18-20.25-13.81-26.51-27.13 3.95-4.45 5.59-10.42 4.97-15.58-.79-6.65-5.59-13.86-16.68-14.1-1.36-.04-6.12.17-9.8 4.12-3.04 3.26-4.3 7.91-3.74 13.83a2.61 2.61 0 0 0 2.82 2.35c1.43-.14 2.49-1.4 2.35-2.83-.41-4.38.39-7.68 2.36-9.8 1.77-1.88 4.23-2.51 5.89-2.48 9.51.22 11.32 6.74 11.64 9.53.74 6.18-3.1 13.78-10.8 15.83-10.03 2.66-25.96-.89-32.81-10.24-1.61-2.19-1.34-3.94-.92-6.59.33-2.14.71-4.57-.03-7.41-1.8-6.96-8.08-6.61-11.82-6.4-1.23.07-2.36.06-3.67.14-.92.06-1.97.12-2.54-.05-5.16-1.54-6.45-6.54-7.83-13.99-.36-1.96-.7-3.8-1.19-5.55-2.18-7.91-7.53-13.66-15.88-17.1z"/></mask><path fill="url(#a)" fill-opacity=".48" stroke="url(#b)" stroke-width="5.94" d="M16.82 101.73c-5.34-2.2-11.16-1.65-16.82-.98 1.99-.8 3.9-1.69 5.78-2.57.82-.38 1.65-.77 2.47-1.14 7.32-3.32 14.5-6.08 21.89-3.53 8.66 3 16.31 10.17 21.99 16.07.21.22.37.48.55.73.34.48.75 1.08 1.35 1.62 10.69 9.8 32.05 20.26 47.02 8.95 4.86-3.68 8.36-8.71 11.24-13.14 8.73-13.39 19.06-25.07 35.36-19.96.39.12.79.32 1.25.54.54.26 1.08.51 1.65.71.23.08.52.2.87.34 2.08.82 3.67 1.39 5.02 1.2a2.6 2.6 0 0 0 2.04-1.59c1.1-2.72-1.31-4.87-2.6-6.03-.21-.18-.4-.35-.53-.49-.79-.86-1.66-1.53-2.51-2.19-.98-.76-1.91-1.48-2.45-2.32-5.7-8.89-5.84-17.67-.4-25.38 8.36-11.87 28.58-18.86 44.15-15.25 7.57 1.74 17.06 6.66 19.23 20.14l1.59 9.9a2.6 2.6 0 0 0 5.14-.79c-1.26-8.49-2.69-18.1.17-26.55 1.82-5.39 5.52-10.72 11.33-16.31 20.9-20.09 52.54-28.38 80.6-21.12C325.39 6 336.19 13.03 346.19 24.7c6.44 7.5 14.19 17.64 17 29.42 4.09 17.11-3.03 36.51-17.73 48.27-13.74 11.01-33.17 15.1-51.94 10.95-5.34-1.18-10.16-2.96-14.38-5.24a49 49 0 0 0-7.87-5.52c-.58-.53-1.17-1.07-1.71-1.63-11.96-12.53-10.21-32.48-1.73-43.77 7.5-9.98 18.59-12.16 30.46-5.98 3.69 1.92 8.03 6.05 8.8 10.55.4 2.36-.27 4.42-2.04 6.32-.98 1.05-.92 2.7.13 3.67 1.05.98 2.69.92 3.67-.12 2.88-3.08 4.04-6.8 3.36-10.75-1.08-6.28-6.57-11.7-11.52-14.28-14.15-7.36-27.98-4.57-37.02 7.46-8.43 11.23-11.02 29.91-2.65 44.13-8.05-2.49-17.59-3.43-28.68-2-11.46 1.47-26.75 8.3-32.13 22.71-5.77 15.47 3.56 31.68 15.27 39.08 7.71 4.88 18.57 6.02 26.4 2.8 5.96-2.46 9.87-7.09 11.32-13.4 2.23-9.81-3.58-19.9-12.72-22.04-5.04-1.18-9.76-.46-12.65 1.93-1.54 1.27-3.32 3.65-3.14 7.77.11 2.55 1.58 5.08 3.83 6.59 2.07 1.4 4.49 1.77 6.66 1a2.59 2.59 0 0 0 1.58-3.32 2.593 2.593 0 0 0-3.31-1.58c-.85.29-1.7-.19-2.03-.41-.9-.61-1.51-1.6-1.55-2.52-.07-1.62.35-2.77 1.27-3.54 1.59-1.32 4.78-1.67 8.14-.87 7.07 1.65 10.27 9.51 8.83 15.82-1.07 4.65-3.84 7.94-8.24 9.76-6.36 2.63-15.26 1.64-21.64-2.39-9.97-6.31-17.98-19.97-13.17-32.87 4.57-12.24 17.89-18.09 27.92-19.37 14.7-1.88 26.4.69 35.26 5.56 2.3 2.02 4.91 3.81 7.75 5.4 5.07 4.43 8.72 9.69 10.96 15 6.99 16.47 2.72 39.04-8.9 54.98-.22.07-.45.17-.66.31-.69.48-1.08 1.22-1.12 2-2.85 3.52-6.08 6.67-9.65 9.27-15.47 11.23-40.95 13.84-56.82 5.81-11.12-5.62-20.39-15.86-26.31-29.01 2.86-.88 5.45-2.11 7.69-3.68 5.54-3.88 9-10.07 9.02-16.15a2.6 2.6 0 0 0-2.59-2.6h-.01a2.59 2.59 0 0 0-2.59 2.59c-.02 4.41-2.63 8.97-6.82 11.91-3.69 2.6-8.68 4.08-14.42 4.3-12.32.49-23.74-4.71-35.98-16.31a2.584 2.584 0 0 0-3.67.1c-.98 1.04-.94 2.68.1 3.67 12.6 11.95 25.08 17.77 38.07 17.77.56 0 1.12 0 1.68-.03 1.43-.05 2.8-.19 4.15-.38 1.88 8.58-6.8 16.9-12.61 20.66-9.55 6.19-22.78 7.23-34.53 2.71-10.85-4.18-20.25-13.81-26.51-27.13 3.95-4.45 5.59-10.42 4.97-15.58-.79-6.65-5.59-13.86-16.68-14.1-1.36-.04-6.12.17-9.8 4.12-3.04 3.26-4.3 7.91-3.74 13.83a2.61 2.61 0 0 0 2.82 2.35c1.43-.14 2.49-1.4 2.35-2.83-.41-4.38.39-7.68 2.36-9.8 1.77-1.88 4.23-2.51 5.89-2.48 9.51.22 11.32 6.74 11.64 9.53.74 6.18-3.1 13.78-10.8 15.83-10.03 2.66-25.96-.89-32.81-10.24-1.61-2.19-1.34-3.94-.92-6.59.33-2.14.71-4.57-.03-7.41-1.8-6.96-8.08-6.61-11.82-6.4-1.23.07-2.36.06-3.67.14-.92.06-1.97.12-2.54-.05-5.16-1.54-6.45-6.54-7.83-13.99-.36-1.96-.7-3.8-1.19-5.55-2.18-7.91-7.53-13.66-15.88-17.1z" mask="url(#c)"/><path fill="url(#d)" fill-opacity=".48" stroke="url(#e)" stroke-width="2.97" d="M367.38 83.18c-3.56 9.33-9.62 17.91-17.74 24.41-15.34 12.28-36.87 16.83-57.56 12.26-.52-.12-1.04-.24-1.55-.37a47 47 0 0 1 2.6 5.19c7.87 18.56 3.58 42.84-8.85 60.47 4.12 5.15 9.44 9.36 15.18 11.4 6 2.12 12.48 1.87 18.7-2.24 1.59-1.06 3.18-2.24 4.48-3.3 1.03-.85 1.8-1.57 2.25-2.07.01-1.12.48-2.25 1.39-3.05v-.01l.17-.13c1.63-1.29 4-1.15 5.45.36l.14.15c.9 1.02 1.77 2.03 2.6 3.01 4.76 5.59 8.65 10.12 15.48 12.92 6.69 2.73 14.65 3.56 21.8 2.25 11.13-2.03 17.17-7.3 25.9-14.97.55-.47 1.1-.96 1.66-1.45l1.72-1.5c1.31-1.13 2.71-2.47 4.19-3.95-5.72 2.82-11.71 5.23-17.98 6.15-2.68.39-5.35.58-7.98.58-12.01 0-23.42-3.98-31.55-11.32a4.08 4.08 0 0 1-.3-5.76c1.52-1.68 4.1-1.8 5.77-.29 8.02 7.23 20.29 10.55 32.88 8.71 8.09-1.18 16.14-5.55 24.23-9.96 10.36-5.66 21.44-11.73 33.64-11.09 1.96 0 3.98.18 6.07.58h.01c.64.12 1.22.4 1.7.77 1.3.38 2.62.82 3.98 1.4 5.3 2.25 10.09 5.39 14.6 8.33 8.54 5.58 16.14 10.48 25.95 9.93 5.35-.3 9.17-2.05 12.26-4.94 2.93-2.76 5.27-6.63 7.54-11.53l.46-.99c1.01-2.26 2.49-5.55 4.66-8.6 1.41-1.97 3.14-3.9 5.28-5.4-.74-.07-1.53-.1-2.39-.1l-1.01.02c-1.29.04-2.47.49-4.18 1.18-.69.28-1.44.58-2.21.84-1.86.65-3.51 1.38-5.17 2.11-4.28 1.9-8.59 3.83-15.26 3.31-3.8-.29-8.08-.74-11.99-2.71-7.8-3.91-12.4-10.75-16.62-16.99-3.38-4.98-6.4-9.42-10.64-12.54-9.86-7.26-24-7.62-33.98-1.05.23 2.81.17 5.65-.26 8.46-1.26 8.43-5.81 16.31-12.48 21.62-6.04 4.82-15.14 7.35-23.93 7.35-5.18-.01-10.35-.88-14.8-2.76-8.18-3.44-13.25-9.94-14.1-18.28-1.17-11.61 7.06-19.39 15.04-21.73 9.19-2.69 17.99 1.14 22.33 9.69 1.02 2.01.21 4.47-1.8 5.49a4.09 4.09 0 0 1-5.49-1.8c-1.55-3.06-3.69-4.71-5.91-5.48-2.25-.78-4.69-.69-6.83-.06-5.03 1.47-9.91 6.21-9.22 13.07.54 5.33 3.52 9.21 9.14 11.57 4.57 1.93 10.39 2.52 16.03 1.88 5.64-.65 10.92-2.52 14.45-5.33 4.91-3.91 8.31-9.66 9.39-15.85l.09-.6c1.05-6.96-.6-14.3-3.81-20.95-3.2-6.65-7.92-12.49-12.84-16.42-7.48-5.98-18.33-9.48-30.78-9.89Z"/></g><defs><linearGradient id="a" x1="364.33" x2="0" y1="102.16" y2="102.16" gradientUnits="userSpaceOnUse"><stop stop-color="#fcf0d6"/><stop offset="1" stop-color="#ffc446"/></linearGradient><linearGradient id="b" x1="364.33" x2="0" y1="102.16" y2="102.16" gradientUnits="userSpaceOnUse"><stop stop-color="#fcf0d6"/><stop offset="1" stop-color="#ffc446"/></linearGradient><linearGradient id="d" x1="531" x2="282.43" y1="144.09" y2="144.09" gradientUnits="userSpaceOnUse"><stop stop-color="#fcf0d6"/><stop offset="1" stop-color="#ffc446"/></linearGradient><linearGradient id="e" x1="531" x2="282.43" y1="144.09" y2="144.09" gradientUnits="userSpaceOnUse"><stop stop-color="#fcf0d6"/><stop offset="1" stop-color="#ffc446"/></linearGradient></defs></svg>
